X: 8627
T: Crooked Road To Dublin, The
R: reel
M: 4/4
K: Gmajor
DG G2 FGAF|G2FG AdcA|G2 AG FGAg|fdcA d2 cA|
G2 G2 FGAF|G2FG AdcA|G2 AG FGAg|fdcA d2 Bc||
dg g2 fgaf|dg g2 agfd|dg g2 fgag|fdcA d2 Bc|
dg g2 fgaf|dg g2 a2ga|bgaf gbag|fdcA d2 cA||

